X:1
T:Morris Off
C:Traditional
M:4/4
L:1/4
Q:1/4=112
K:D
A | d/2c/2d/2B/2 AD | e/2d/2c/2B/2 A2 | f2 ed | e/2d/2c/2B/2 A2 |
d/2c/2d/2B/2 AD | e/2d/2c/2B/2 A2 | f/2e/2d/2c/2 B/2A/2B/2c/2 | de d2 |]
